X: 11574
Q: "Briskly."
M: C
L: 1/8
K: F
c |\
f2eg f2eg | fdcB BGAF |\
f2eg fagf | eg=B>d d<cc :|\
c |\
d>efd efg>e | fgab ag-gb |\
a<fec d<fc<A |
c |\
[1 B>cdf egfd | c<BG>B A<FF :|\
[2 B>cdf e<gf<a | b<ge>B A<FF |]


